svg/person bowing.svg

<?xml version="1.0" encoding="UTF-8" standalone="no"?>
<svg
   width="128px"
   height="128px"
   version="1.1"
   xml:space="preserve"
   style="fill-rule:evenodd;clip-rule:evenodd;stroke-linecap:round;stroke-miterlimit:10;"
   id="svg11"
   sodipodi:docname="person bowing.svg"
   inkscape:version="1.3 (0e150ed6c4, 2023-07-21)"
   xmlns:inkscape="http://www.inkscape.org/namespaces/inkscape"
   xmlns:sodipodi="http://sodipodi.sourceforge.net/DTD/sodipodi-0.dtd"
   xmlns="http://www.w3.org/2000/svg"
   xmlns:svg="http://www.w3.org/2000/svg"><defs
     id="defs11" /><sodipodi:namedview
     id="namedview11"
     pagecolor="#ffffff"
     bordercolor="#000000"
     borderopacity="0.25"
     inkscape:showpageshadow="2"
     inkscape:pageopacity="0.0"
     inkscape:pagecheckerboard="0"
     inkscape:deskcolor="#d1d1d1"
     inkscape:zoom="2.867097"
     inkscape:cx="49.004271"
     inkscape:cy="65.048374"
     inkscape:window-width="1366"
     inkscape:window-height="697"
     inkscape:window-x="-8"
     inkscape:window-y="-8"
     inkscape:window-maximized="1"
     inkscape:current-layer="svg11" /><path
     d="M113.05,95.9C99.04,81.41 68.83,80.36 64.5,80.28L64.5,80.27L63.96,80.27L63.96,80.28C59.63,80.36 29.42,81.41 15.41,95.9C5.2,106.46 7.4,116.7 9.52,119.71C13.53,125.39 24.27,127.96 24.27,127.96L104.17,127.96C104.17,127.96 114.91,125.39 118.92,119.71C121.05,116.7 123.26,106.46 113.05,95.9Z"
     style="fill:#da4105;fill-rule:nonzero;"
     id="path1" /><path
     d="M84.27,99.19C76.7,96.75 66.41,96.87 64,96.93C61.59,96.86 51.3,96.74 43.73,99.19C28.54,104.1 26.74,110.31 26.74,110.31L50.4,128L77.61,128L101.26,110.31C101.27,110.31 99.47,104.1 84.27,99.19Z"
     style="fill-opacity:0.2;fill-rule:nonzero;"
     id="path2" /><path
     d="M72.7,90.91L55.21,90.91L55.21,100.15C55.21,104.33 58.77,107.72 63.16,107.72L64.75,107.72C69.14,107.72 72.7,104.33 72.7,100.15L72.7,90.91Z"
     style="fill:#e59900;fill-rule:nonzero;"
     id="path3" /><g
     id="g4"><path
       d="M94.86,67.97C94.86,67.97 100.49,68.95 100.49,75.01C100.49,80.36 96.38,82.48 92.27,82.48L92.27,67.97L94.86,67.97ZM33.41,67.97C33.41,67.97 27.78,68.95 27.78,75.01C27.78,80.36 31.89,82.48 36,82.48L36,67.97L33.41,67.97Z"
       style="fill:#e59600;fill-rule:nonzero;"
       id="path4" /></g><path
     d="M64.13,28.23C39.85,28.23 33.49,45.68 33.49,70.2C33.49,95.62 51.11,102.2 64.13,102.2C76.95,102.2 94.77,95.81 94.77,70.2C94.77,45.69 88.42,28.23 64.13,28.23Z"
     style="fill:#fcc21b;fill-rule:nonzero;"
     id="path5" /><path
     d="M54.05,77.88C54.05,80.61 52.22,82.82 49.96,82.82C47.7,82.82 45.86,80.61 45.86,77.88C45.86,75.14 47.7,72.93 49.96,72.93C52.22,72.93 54.05,75.14 54.05,77.88M74.22,77.88C74.22,80.61 76.05,82.82 78.32,82.82C80.58,82.82 82.42,80.61 82.42,77.88C82.42,75.14 80.58,72.93 78.32,72.93C76.05,72.93 74.22,75.14 74.22,77.88"
     style="fill:#444;fill-rule:nonzero;"
     id="path6" /><path
     d="M68.42,88.97C66.91,89.4 65.35,89.61 64.14,89.61C62.93,89.61 61.37,89.4 59.86,88.97C59.21,88.79 58.96,89.4 59.19,89.8C59.67,90.64 61.6,92.34 64.14,92.34C66.68,92.34 68.61,90.64 69.09,89.8C69.32,89.4 69.06,88.79 68.42,88.97Z"
     style="fill:#e59600;fill-rule:nonzero;"
     id="path7" /><g
     id="g8"><path
       d="M52.56,18.99L49.86,8.9M37.69,26.42L30.3,19.04M90.31,26.42L97.7,19.04M75.44,18.99L78.14,8.9"
       style="fill:none;fill-rule:nonzero;stroke:#444;stroke-width:4px;"
       id="path8" /></g><g
     id="g9"><path
       d="M36.9,117.41L42.27,117.77C43.48,117.77 44.68,117.95 45.84,118.3C49.44,119.4 57.38,122.17 61.69,123.27C62.75,123.54 63.49,124.5 63.49,125.59C63.49,126.907 62.407,127.99 61.09,127.99L33.76,127.99L36.9,117.41ZM91.12,117.41L85.75,117.77C84.54,117.77 83.34,117.95 82.18,118.3C78.58,119.4 70.64,122.17 66.33,123.27C65.27,123.54 64.53,124.5 64.53,125.59C64.53,126.907 65.613,127.99 66.93,127.99L94.26,127.99L91.12,117.41Z"
       style="fill:#fcc21b;fill-rule:nonzero;"
       id="path9" /></g><g
     id="g10"><path
       d="M27.24,106.22L38.83,113.98C39.61,114.5 39.9,115.51 39.52,116.37L34.29,128L24.27,128L27.24,106.22ZM100.78,106.22L89.19,113.98C88.41,114.5 88.12,115.51 88.5,116.37L93.72,128L104.17,128L100.78,106.22Z"
       style="fill:#da4105;fill-rule:nonzero;"
       id="path10" /></g><g
     transform="matrix(1,0,0,0.918588,60.3495,17.5257)"
     id="g11"><path
       d="m -18.81,19.165 c 4.989,-3.96 11.975,-7.298 21.816,-7.493 0,0 0.469,-0.019 0.685,-0.019 0.195,0 0.682,0.019 0.682,0.019 7.113,0.2 12.948,2.025 17.612,4.558 1.556,0.491 3.049,1.13 4.342,1.87 0.786,0.449 1.499,0.948 2.206,1.512 0.146,0.117 0.683,0.413 0.731,0.591 0.055,0.199 -0.411,-0.03 -0.618,-0.048 C 28.35,20.13 28.05,20.109 27.753,20.071 L 27.656,20.06 c 1.153,0.952 2.193,1.935 3.12,2.917 0.518,0.312 1.031,0.654 1.537,1.037 0.628,0.474 1.142,1.057 1.635,1.663 0.17,0.21 0.346,0.415 0.494,0.643 0.093,0.143 0.441,0.411 0.273,0.43 -0.314,0.036 -0.692,-0.13 -1.033,-0.239 0.937,1.319 1.664,2.57 2.19,3.663 1.851,3.853 2.933,7.585 3.524,10.998 1.116,1.493 2.024,3.12 2.191,4.719 0.026,0.247 -0.385,-0.314 -0.585,-0.457 -0.373,-0.268 -0.767,-0.501 -1.151,-0.751 0.206,2.391 0.187,4.556 0.061,6.407 0.707,0.86 1.757,1.984 1.881,3.118 0.01,0.103 -0.189,-0.086 -0.281,-0.132 -0.258,-0.128 -0.493,-0.248 -0.728,-0.419 -0.356,-0.258 -0.702,-0.537 -1.027,-0.837 -0.348,3.109 -0.939,4.967 -0.939,4.967 0,0 -0.409,-0.428 -1.189,-1.034 -0.84,-0.644 -1.757,-1.015 -1.757,-1.015 1.225,5.533 2.267,14.384 0,18.212 -3.69,-3.096 -8.713,-7.162236 -10.084,-25.317236 -1.254,1.098 -2.53,2.084 -3.631,2.551 0.08,0.333 0.159,0.665 0.264,0.977 0.12,0.357 0.262,0.709 0.436,1.042 0.093,0.176 0.503,0.543 0.306,0.512 -0.478,-0.072 -1.205,-0.806 -1.629,-1.068 -0.857,-0.532 -1.758,-0.974 -2.71,-1.272 -0.94,-0.059 -1.879,-0.149 -2.803,-0.308 0.346,1.159 0.627,2.341 0.729,3.545 0.036,0.428 0.08,1.673 -0.249,1.973 0,0 -0.313,-0.42 -0.338,-0.457 -0.214,-0.306 -0.432,-0.61 -0.65,-0.912 -0.626,-0.864 -1.249,-1.722 -1.97,-2.512 -1.338,-1.468 -2.722,-2.855 -4.258,-4.04 -1.482,-0.673 -2.965,-1.342 -4.533,-1.824 -2.084,-0.643 -4.228,-0.731 -6.356,-1.119 -0.371,-0.069 -0.74,-0.155 -1.105,-0.254 -0.214,0.008 -0.428,0.017 -0.64,0.029 1.214,2.937 1.621,6.191 0.684,9.231 -0.417,1.35 -1.03,2.637 -1.833,3.797 -0.06,0.086 -0.635,0.927 -0.788,0.864 -0.438,-0.183 -1.098,-1.602 -1.373,-2.002 -1.031,-1.5 -2.126,-3.045 -3.426,-4.332 -2.392,-2.373 -5.275,-3.931 -8.235,-5.369 0.181,11.015 -3.188,19.364236 -10.172,26.265236 -1.801,-4.039 -1.524,-13.243 0,-18.212 0,0 -0.937,0.371 -1.755,1.015 -0.761,0.606 -1.192,1.034 -1.192,1.034 0,0 -1.323,-4.952 -1.342,-11.21 -0.352,0.31 -0.986,1.104 -1.386,1.167 -0.117,0.019 0.021,-0.237 0.034,-0.356 0.033,-0.285 0.079,-0.57 0.125,-0.853 0.107,-0.659 0.248,-1.313 0.434,-1.956 0.248,-0.864 0.602,-1.673 1.017,-2.451 0.422,-3.952 1.516,-8.072 3.828,-11.6 -0.471,-0.036 -0.928,-0.084 -1.36,-0.136 -0.554,-0.069 -1.109,-0.185 -1.633,-0.378 -0.068,-0.025 -0.43,-0.107 -0.453,-0.18 0,0 1,-0.484 1.153,-0.566 1.264,-0.671 2.511,-1.43 3.738,-2.17 0.641,-0.388 1.293,-0.822 1.937,-1.287 1.13,-1.436 2.47,-2.975 4.063,-4.493 -0.436,-0.346 -0.824,-0.771 -1.149,-1.3 -0.367,-0.601 -0.711,-1.293 -0.795,-2.002 -0.029,-0.241 0.137,-0.857 0.546,-0.778 1.085,0.208 1.574,1.776 2.75,2.042 0.298,0.067 0.719,-0.01 1.122,-0.115 z"
       style="fill:#6d4c41;fill-rule:nonzero"
       id="path11"
       sodipodi:nodetypes="ccsccccccccccccccccccccccccccccccccccccccccccccccccccccccccccccccccccccccccccc" /></g></svg>

<?xml version="1.0" encoding="UTF-8" standalone="no"?><!DOCTYPE svg PUBLIC "-//W3C//DTD SVG 1.1//EN" "http://www.w3.org/Graphics/SVG/1.1/DTD/svg11.dtd"><svg width="128px" height="128px" version="1.1" xmlns="http://www.w3.org/2000/svg" xmlns:xlink="http://www.w3.org/1999/xlink" xml:space="preserve" xmlns:serif="http://www.serif.com/" style="fill-rule:evenodd;clip-rule:evenodd;stroke-linecap:round;stroke-miterlimit:10;"><path d="M113.05,95.9C99.04,81.41 68.83,80.36 64.5,80.28L64.5,80.27L63.96,80.27L63.96,80.28C59.63,80.36 29.42,81.41 15.41,95.9C5.2,106.46 7.4,116.7 9.52,119.71C13.53,125.39 24.27,127.96 24.27,127.96L104.17,127.96C104.17,127.96 114.91,125.39 118.92,119.71C121.05,116.7 123.26,106.46 113.05,95.9Z" style="fill:#da4105;fill-rule:nonzero;"/><path d="M84.27,99.19C76.7,96.75 66.41,96.87 64,96.93C61.59,96.86 51.3,96.74 43.73,99.19C28.54,104.1 26.74,110.31 26.74,110.31L50.4,128L77.61,128L101.26,110.31C101.27,110.31 99.47,104.1 84.27,99.19Z" style="fill-opacity:0.2;fill-rule:nonzero;"/><path d="M72.7,90.91L55.21,90.91L55.21,100.15C55.21,104.33 58.77,107.72 63.16,107.72L64.75,107.72C69.14,107.72 72.7,104.33 72.7,100.15L72.7,90.91Z" style="fill:#e59900;fill-rule:nonzero;"/><g><path d="M94.86,67.97C94.86,67.97 100.49,68.95 100.49,75.01C100.49,80.36 96.38,82.48 92.27,82.48L92.27,67.97L94.86,67.97ZM33.41,67.97C33.41,67.97 27.78,68.95 27.78,75.01C27.78,80.36 31.89,82.48 36,82.48L36,67.97L33.41,67.97Z" style="fill:#e59600;fill-rule:nonzero;"/></g><path d="M64.13,28.23C39.85,28.23 33.49,45.68 33.49,70.2C33.49,95.62 51.11,102.2 64.13,102.2C76.95,102.2 94.77,95.81 94.77,70.2C94.77,45.69 88.42,28.23 64.13,28.23Z" style="fill:#fcc21b;fill-rule:nonzero;"/><path d="M54.05,77.88C54.05,80.61 52.22,82.82 49.96,82.82C47.7,82.82 45.86,80.61 45.86,77.88C45.86,75.14 47.7,72.93 49.96,72.93C52.22,72.93 54.05,75.14 54.05,77.88M74.22,77.88C74.22,80.61 76.05,82.82 78.32,82.82C80.58,82.82 82.42,80.61 82.42,77.88C82.42,75.14 80.58,72.93 78.32,72.93C76.05,72.93 74.22,75.14 74.22,77.88" style="fill:#444;fill-rule:nonzero;"/><path d="M68.42,88.97C66.91,89.4 65.35,89.61 64.14,89.61C62.93,89.61 61.37,89.4 59.86,88.97C59.21,88.79 58.96,89.4 59.19,89.8C59.67,90.64 61.6,92.34 64.14,92.34C66.68,92.34 68.61,90.64 69.09,89.8C69.32,89.4 69.06,88.79 68.42,88.97Z" style="fill:#e59600;fill-rule:nonzero;"/><g><path d="M52.56,18.99L49.86,8.9M37.69,26.42L30.3,19.04M90.31,26.42L97.7,19.04M75.44,18.99L78.14,8.9" style="fill:none;fill-rule:nonzero;stroke:#444;stroke-width:4px;"/></g><g><path d="M36.9,117.41L42.27,117.77C43.48,117.77 44.68,117.95 45.84,118.3C49.44,119.4 57.38,122.17 61.69,123.27C62.75,123.54 63.49,124.5 63.49,125.59C63.49,126.907 62.407,127.99 61.09,127.99L33.76,127.99L36.9,117.41ZM91.12,117.41L85.75,117.77C84.54,117.77 83.34,117.95 82.18,118.3C78.58,119.4 70.64,122.17 66.33,123.27C65.27,123.54 64.53,124.5 64.53,125.59C64.53,126.907 65.613,127.99 66.93,127.99L94.26,127.99L91.12,117.41Z" style="fill:#fcc21b;fill-rule:nonzero;"/></g><g><path d="M27.24,106.22L38.83,113.98C39.61,114.5 39.9,115.51 39.52,116.37L34.29,128L24.27,128L27.24,106.22ZM100.78,106.22L89.19,113.98C88.41,114.5 88.12,115.51 88.5,116.37L93.72,128L104.17,128L100.78,106.22Z" style="fill:#da4105;fill-rule:nonzero;"/></g><g transform="matrix(1,0,0,0.918588,60.3495,17.5257)"><path d="M-18.81,19.165C-13.821,15.205 -6.835,11.867 3.006,11.672C3.006,11.672 3.475,11.653 3.691,11.653C3.886,11.653 4.373,11.672 4.373,11.672C11.486,11.872 17.321,13.697 21.985,16.23C23.541,16.721 25.034,17.36 26.327,18.1C27.113,18.549 27.826,19.048 28.533,19.612C28.679,19.729 29.216,20.025 29.264,20.203C29.319,20.402 28.853,20.173 28.646,20.155C28.35,20.13 28.05,20.109 27.753,20.071L27.656,20.06C28.809,21.012 29.849,21.995 30.776,22.977C31.294,23.289 31.807,23.631 32.313,24.014C32.941,24.488 33.455,25.071 33.948,25.677C34.118,25.887 34.294,26.092 34.442,26.32C34.535,26.463 34.883,26.731 34.715,26.75C34.401,26.786 34.023,26.62 33.682,26.511C34.619,27.83 35.346,29.081 35.872,30.174C37.723,34.027 38.805,37.759 39.396,41.172C40.512,42.665 41.42,44.292 41.587,45.891C41.613,46.138 41.202,45.577 41.002,45.434C40.629,45.166 40.235,44.933 39.851,44.683C40.057,47.074 40.038,49.239 39.912,51.09C40.619,51.95 41.669,53.074 41.793,54.208C41.803,54.311 41.604,54.122 41.512,54.076C41.254,53.948 41.019,53.828 40.784,53.657C40.428,53.399 40.082,53.12 39.757,52.82C39.409,55.929 38.818,57.787 38.818,57.787C38.818,57.787 38.409,57.359 37.629,56.753C36.789,56.109 35.872,55.738 35.872,55.738C37.097,61.271 38.139,70.122 35.872,73.95C32.182,70.854 27.159,60.256 25.788,42.101C24.534,43.199 23.258,44.185 22.157,44.652C22.237,44.985 22.316,45.317 22.421,45.629C22.541,45.986 22.683,46.338 22.857,46.671C22.95,46.847 23.36,47.214 23.163,47.183C22.685,47.111 21.958,46.377 21.534,46.115C20.677,45.583 19.776,45.141 18.824,44.843C17.884,44.784 16.945,44.694 16.021,44.535C16.367,45.694 16.648,46.876 16.75,48.08C16.786,48.508 16.83,49.753 16.501,50.053C16.501,50.053 16.188,49.633 16.163,49.596C15.949,49.29 15.731,48.986 15.513,48.684C14.887,47.82 14.264,46.962 13.543,46.172C12.205,44.704 10.821,43.317 9.285,42.132C7.803,41.459 6.32,40.79 4.752,40.308C2.668,39.665 0.524,39.577 -1.604,39.189C-1.975,39.12 -2.344,39.034 -2.709,38.935C-2.923,38.943 -3.137,38.952 -3.349,38.964C-2.135,41.901 -1.728,45.155 -2.665,48.195C-3.082,49.545 -3.695,50.832 -4.498,51.992C-4.558,52.078 -5.133,52.919 -5.286,52.856C-5.724,52.673 -6.384,51.254 -6.659,50.854C-7.69,49.354 -8.785,47.809 -10.085,46.522C-12.477,44.149 -15.36,42.591 -18.32,41.153C-18.139,52.168 -21.508,67.049 -28.492,73.95C-30.293,69.911 -30.016,60.707 -28.492,55.738C-28.492,55.738 -29.429,56.109 -30.247,56.753C-31.008,57.359 -31.439,57.787 -31.439,57.787C-31.439,57.787 -32.762,52.835 -32.781,46.577C-33.133,46.887 -33.767,47.681 -34.167,47.744C-34.284,47.763 -34.146,47.507 -34.133,47.388C-34.1,47.103 -34.054,46.818 -34.008,46.535C-33.901,45.876 -33.76,45.222 -33.574,44.579C-33.326,43.715 -32.972,42.906 -32.557,42.128C-32.135,38.176 -31.041,34.056 -28.729,30.528C-29.2,30.492 -29.657,30.444 -30.089,30.392C-30.643,30.323 -31.198,30.207 -31.722,30.014C-31.79,29.989 -32.152,29.907 -32.175,29.834C-32.175,29.834 -31.175,29.35 -31.022,29.268C-29.758,28.597 -28.511,27.838 -27.284,27.098C-26.643,26.71 -25.991,26.276 -25.347,25.811C-24.217,24.375 -22.877,22.836 -21.284,21.318C-21.72,20.972 -22.108,20.547 -22.433,20.018C-22.8,19.417 -23.144,18.725 -23.228,18.016C-23.257,17.775 -23.091,17.159 -22.682,17.238C-21.597,17.446 -21.108,19.014 -19.932,19.28C-19.634,19.347 -19.213,19.27 -18.81,19.165Z" style="fill:#6d4c41;fill-rule:nonzero;"/></g></svg>
